-----BEGIN PGP SIGNATURE-----

iQJPBAABCAA5FiEEw8cGcMG8fYA8E74ICLIt2OMw5uIFAmp6zrUbFIAAAAAABAAO
bWFudTIsMi41KzEuMTIsMCwzAAoJEAiyLdjjMObiwUQP/jPDf5Lib/LQOx1MpLiP
uh1VfrZp1drcG9Sg8HahUJzPqk8nqUNkwJ+qfrwaEqsJ1e0kX7lN/1VVQ9VsgMWr
tH+zExvey9GJIYf49crljDuDZeCdpJ39VHz3fb9BldM7QUamVv90aVw9Maj8dGY4
i5RO8uldS1jlRh4DnOf+nVKalbJgWkvH+aoexTR+VZdWczOkNoFtie8Kswt7UcvU
/awzGu3ftmjM5xiA9JZ9sD90DLABemrCtQRc63//giz5mVhdYyx2/YZDwybG68aH
8bx+UwaKFZ7RTZRtr3JYNzbIEOkH1LhStgfAiYMVh/xpMKcS+KCGxgROUcxp2a+F
vQ5TlzQYWJvjDgzAUvptWJFBA0F/hN5iqILRJkqblknankzZ5hkL3g6eFxWmOU7V
foWPdB44dPGkDwWVd4gpNcfKVw4zZi9WeSE0fXEvAmlHvPeBtyOQgTz+QC1mkefT
R2M/iIpqnSyiWfawPC7dOBh3M46FCQChSs7mS+tg8qgVurc19eytgwln7/tJrTxX
iKhLew0/8J5iEABlBF6h2VCGoTqk5o/a5f/mCPFRSV4co3aKxmUzz9CiEuf2ZYPB
6lL4oma/PuXOXu4Ry7nk1GqCKnBhaqldmPE1N29HlzzHM5aYq8EWBh9ln3owZMGw
JYHBofRpvhkWVUxtNIzjYRN3
=G+/i
-----END PGP SIGNATURE-----
